!!!COM: Bach, Johann Sebastian
!!!CDT: 1685/3//-1750/7/28/
!!!OTL@@DE: O Haupt voll Blut und Wunden
!!!AGN: 4-Part Chorale
!!!SCT: BH 098
!!!SCT: BWV 244
**harm	**root	**kern	**kern	**kern	**kern
!	!	!bass	!tenor	!alto	!soprno
*	*Iorgan	*Iorgan	*Iorgan	*Iorgan	*Iorgan
*	*	*clefF4	*clefF4	*clefG2	*clefG2
*M4/4	*M4/4	*M4/4	*M4/4	*M4/4	*M4/4
*met(c)	*met(c)	*met(c)	*met(c)	*met(c)	*met(c)
*MM60	*MM60	*MM60	*MM60	*MM60	*MM60
*k[b-]	*k[b-]	*k[b-]	*k[b-]	*k[b-]	*k[b-]
*F:	*F:	*F:	*F:	*F:	*F:
*>[A,A,B]	*>[A,A,B]	*>[A,A,B]	*>[A,A,B]	*>[A,A,B]	*>[A,A,B]
*>A	*>A	*>A	*>A	*>A	*>A
I	4DD	4F	4c	4f	4a
=1	=1	=1	=1	=1	=1
IV	4GG	4B-	4B-	4f	4dd
Ib	4DD	4A	4c	4f	4cc
IVb	8GG	8D	8d	8f	4b-
V7b	8AA	8E	8c	8g	.
I	4DD	4F	4c	8g	4a
.	.	.	.	8f	.
=2	=2	=2	=2	=2	=2
ii7b	4EE	4BB-	4d	4f	2g
V	4AA	4C	4c	4e	.
I;	4DD;	4F;	4c;	4f;	4a;
viib/vi	4AA#	4E	4c#	4g	4ee
=3	=3	=3	=3	=3	=3
vi	4BB	8D	4A	8f	4ff
.	.	8E	.	8g	.
vib	4BB	8F	4d	4a	4ff
.	.	8G	.	.	.
V/vi	4FF#	4A	4d	4a	8ee
.	.	.	.	.	8dd
V/vi	4FF#	4AA	4c#	8a	4ee
.	.	.	.	8g	.
=4	=4	=4	=4	=4	=4
vi;	2.BB;	2.D;	2.d;	2.f;	2.dd;
=:|!	=:|!	=:|!	=:|!	=:|!	=:|!
*>B	*>B	*>B	*>B	*>B	*>B
vi	4BB	4d	4a	8dd	4ff
.	.	.	.	8cc	.
=5	=5	=5	=5	=5	=5
viib	4CC#	4G	8g	4b-	8ee
.	.	.	8f	.	8dd
iii	4FF#	4A	4e	8a	4cc
.	.	.	.	8g	.
IV	4GG	8B-	8d	4f	4dd
.	.	8A	8c	.	.
viib	4CC#	4G	8B-	4b-	4ee
.	.	.	8c	.	.
!!linebreak: 2
=6	=6	=6	=6	=6	=6
IVc	4GG	2F	4d	4b-	2ff
I	4DD	.	8c	8a	.
.	.	.	8B-	8g	.
I;	4DD;	4F;	4c;	4a;	4ff;
I	4DD	4F	4f	4a	4cc
=7	=7	=7	=7	=7	=7
IV	4GG	4B-	4f	4b-	4dd
I	4DD	4F	8f	4a	4cc
.	.	.	8e	.	.
ii	4EE	8G	4d	4a	4b-
.	.	8A	.	.	.
iib	4EE	8B-	4d	4g	4b-
.	.	8c	.	.	.
=8	=8	=8	=8	=8	=8
VI;	2.BB;	2.d;	2.d;	2.f#;	2.a;
V7b/V	4EE	4B	4d	4g	4ff
=9	=9	=9	=9	=9	=9
V	4AA	4c	4c	4g	8ee
.	.	.	.	.	8ff
Vb	4AA	4E	8c	4g	4gg
.	.	.	8B	.	.
Ib	4DD	8A	8c	4a	4ff
.	.	8B	8d	.	.
V	4AA	4c	8e	4g	4ee
.	.	.	8c	.	.
=10	=10	=10	=10	=10	=10
vib	4BB	4F	8A	4a	2dd
.	.	.	8d	.	.
V/V	4EE	4G	4B	4g	.
V;	4AA;	4C;	4c;	4g;	4ee;
I	4DD	8F	4c	4f	4a
.	.	8E	.	.	.
=11	=11	=11	=11	=11	=11
IVb	4GG	4D	4B-	8f	4b-
.	.	.	.	8e	.
Ic	4DD	4C	4c	4f	4a
ii7b	4EE	4BB-	4d	4f	4g
V	4AA	4C	8G	4e	4cc
.	.	.	8c	.	.
=12	=12	=12	=12	=12	=12
I;	2.DD;	2.F;	2.c;	2.f;	2.a;
==	==	==	==	==	==
*-	*-	*-	*-	*-	*-
!!chor2scor: -l 2 -s 0.6 -o %b.pmx
!!!YEC: Copyright 1994, David Huron
!!!YEC: Changes/Additions 2001 by Craig Stuart Sapp
!!!YEN: United States of America
!!!SMA: 371 Bach Chorales, edited by Ludwig Erk, C.F. Peters
!!!PDT: 1850, 1865
!!!ONB: Harmony and Root analysis done manually by Craig Sapp
